!!!!SEGMENT: pl-wtm--1128-3626--001-001_rozycki-ludomir--contes-d-une-horloge-op-26-no-1-menuet.krn
!!!cenid: 19xx:148
!!!COM: Różycki, Ludomir
!!!COM-rismID: pe50045573
!!!CDT: 1883-1953
!!!CNT: Polish
!!!GTL: Contes d’une horloge op. 26
!!!OTL: No. 1. Menuet
!!!OMV: 001
!!!PDT: 1924
!!!AGN: Secular; Minuet
!!!YEC: Copyright 2022 Narodowy Instytut Fryderyka Chopina (https://polishscores.org)
!!!YEM: License CC-BY-4.0 (https://creativecommons.org/licenses/by/4.0)
!!!SMS-siglum: PL-Wtm
!!!SMS-shelfmark: 1128 3626
!!!SMS-variant:
!!!SMS-altvar:
!!!SMS-shelfwork: 001-001 G
!!!NIFC-rismSourceID: 1001211937
!!!NIFC-rismChildID: 1001211937
!!!NIFC-islandoraID: pl-wtm:82123
!!!URL-pdf-islandora: https://repozytorium.nifc.pl/islandora/object/pl-wtm%3A82123/datastream/PDF/view
!!!URL-scan: https://polish.musicsources.pl/pl/lokalizacje/galeria/druki-muzyczne/18462/3 @EN{Scan on Polish Music Sources Website} @PL{Skany w portalu Dziedzictwo Muzyki Polskiej w otwartym dostępie}
!!!IIIF:
!!!ONB-nifc:
!!!AIN: 1 piano
!!!key: E-
**kern	**fing	**kern	**fing	**dynam
*part1	*part1	*part1	*part1	*part1
*staff2	*	*staff1	*	*
*I"Piano.	*	*I"Piano.	*	*
*I'pf	*	*I'pf	*	*
*ICklav	*	*ICklav	*	*
*Ipiano	*	*Ipiano	*	*
*clefF4	*	*clefG2	*	*
*k[b-e-a-]	*	*k[b-e-a-]	*	*
*E-:	*	*E-:	*	*
*M3/4	*	*M3/4	*	*
=1	=1	=1	=1	=1
*ped	*	*	*	*
*	*below	*	*above	*
!	!	!LO:TX:a:B:t=Tempo di minuetto. M. M. [quarter]=120 	!	!
4E-':\ 4B-: 4e-:	1 3 5	(8b-\L 8ee- 8bb-	5	p
.	.	8eee-\)	4	.
4B-'\ 4e- 4b-	1 3 5	(8gg\ 8eee-	1 5	.
.	.	8ccc\)	4	.
4r	.	(8ccc\	4	.
.	.	8ddd\J)	5	.
*Xped	*	*	*	*
=2	=2	=2	=2	=2
*ped	*	*	*	*
4E-'\ 4B- 4d	.	4b-'\ 4ff 4bb-	1 2 5	.
4E-'\ 4B- 4e-	.	4b-'\ 4ff 4bb-	1 3 5	.
4E-'\ 4B- 4f	.	4b-'\ 4aa- 4bb-	1 4 5	.
*Xped	*	*	*	*
=3	=3	=3	=3	=3
*ped	*	*	*	*
4E-':\ 4B-: 4g:	.	(8b-\L 8ee- 8bb-	.	.
.	.	8eee-\)	.	.
4B-'\ 4e- 4b-	.	(8gg\ 8eee-	.	.
.	.	8ccc\)	.	.
4r	.	(8ccc\	.	.
.	.	8ddd\J)	.	.
*Xped	*	*	*	*
=4	=4	=4	=4	=4
*ped	*	*	*	*
4E-'\ 4B- 4d	.	4b-'\ 4ff 4bb-	.	.
4E-'\ 4B- 4e-	.	4b-'\ 4ff 4bb-	.	.
4E-'\ 4B- 4f	.	4b-'\ 4aa- 4bb-	.	.
*Xped	*	*	*	*
=5	=5	=5	=5	=5
*ped	*	*	*	*
4E-:\ 4B-: 4g:	.	(8b-:\L 8ee-: 8bb-:	5	.
.	.	8eee-\)	4	.
*clefG2	*	*	*	*
4B-'/ 4e- 4b-	.	(8gg\ 8eee-	3	.
.	.	8ggg\)	5	.
4e-'/ 4g 4ee-	.	(8bb-\ 8ggg	3	.
.	.	8bbb-\J)	5	.
*Xped	*	*	*	*
!!LO:LB:g=original	!	!	!	!
=6	=6	=6	=6	=6
*ped	*	*8va	*	*
4A-'/ 4f 4cc	.	4ccc'\ 4ggg 4bbb-	1 2 4	.
4f'/ 4cc 4ee-	.	8ccc'\L 8aaa-	1 3	.
.	.	8bb-'\ 8ggg	5	.
4ryy	.	8aa-'\ 8fff	5	.
.	.	8gg'\J 8eee-	4	.
*Xped	*	*X8va	*	*
=7	=7	=7	=7	=7
4B-/ 4a- 4b-	.	8ff'\L 8ddd	4	.
.	.	8ee-'\ 8ccc	5	.
4B-/	.	8dd'\ 8bb-	4	.
.	.	8cc'\ 8aa-	3	.
4B-/	.	8b-'\ 8gg	5	.
.	.	8a-'\J 8ff	4	.
=8	=8	=8	=8	=8
*ped	*	*	*	*
4E-/ 4B- 4e-	.	8g'\L 8ee-	4	.
.	.	8ee-'\J	.	.
.	.	(8qdd/	.	.
4B-/ 4e- 4b-	.	4g'\) 4ee-	4	.
!LO:TX:t=P:problem:klucz basowy przed wiolinowym	!	!	!	!
*Xped	*	*	*	*
4r	.	4r	.	.
*clefF4	*	*	*	*
=9:|!	=9:|!	=9:|!	=9:|!	=9:|!
*clefG2	*	*	*	*
*ped	*	*	*	*
4B-/	.	(8f:\L 8b-: 8dd: 8ff:	5	pp
.	.	8bb-\J)	4	.
2f:\ 2b-: 2dd: 2ff:	.	2bb-\	.	.
*Xped	*	*	*	*
=10	=10	=10	=10	=10
*	*	*8va	*	*
*^	*	*	*	*
*	*ped	*	*	*	*
4B-:/ 4f: 4dd:	4ryy	.	(8ff:\L 8bb-: 8fff:	.	pp
.	.	.	8bb-\J) 8bbb-	.	.
2dd/ 2ff	(8f\L	5	2bb-\ 2bbb-	.	.
.	8b-\J)	3	.	.	.
*	*Xped	*	*	*	*
.	4b-\	3	.	.	.
*v	*v	*	*	*	*
=11	=11	=11	=11	=11
*	*	*^	*	*
*ped	*	*	*	*	*
4B-'/ 4f 4cc	1 3 5	(8aa-\L 8aaa-	4eee-/	1 3 5	.
.	.	8gg\J) 8ggg	.	.	.
*Xped	*	*	*	*	*
*ped	*	*	*	*	*
4a-'\ 4ee-	1 2	4ff'\ 4fff	4ccc/	1 2 5	.
*Xped	*	*	*	*	*
*ped	*	*	*	*	*
4f'/ 4a-	2 3	4gg'\ 4ggg	4eee-/	1 3 5	.
!!LO:LB:g=original	!	!	!	!	!
*Xped	*	*X8va	*	*	*
=12	=12	=12	=12	=12	=12
*	*	*	*	*^	*
*ped	*	*8va	*	*below	*above	*
4B-'/ 4b-	1 5	4ddd/ 4fff	(>8ff\L	1	3 5	.
.	.	.	8bb-\)	2	.	.
4f'/ 4dd	1 3	4ryy	8bb-'\	1	.	.
.	.	.	8bbb-'\J	5	.	.
4r	.	4bbb-'\	4ryy	4	.	.
*Xped	*	*	*	*	*	*
*	*	*	*	*v	*v	*
*	*	*v	*v	*	*
=13	=13	=13	=13	=13
*ped	*	*	*	*
4B-/	.	(8ff:\L 8bb-: 8ddd: 8fff:	.	.
.	.	8bbb-\J)	.	.
2f:\ 2b-: 2dd: 2ff:	.	2bbb-\	.	.
*Xped	*	*	*	*
=14	=14	=14	=14	=14
*^	*	*	*	*
*ped	*	*	*	*	*
4B-/ 4f 4dd	4ryy	1 3 5	(8ff\L 8bb- 8fff	.	.
.	.	.	8bb-\J) 8bbb-	.	.
2dd/ 2ff	(8f\L	5	2bb-\ 2bbb-	.	.
.	8b-\J)	3	.	.	.
.	4b-'<\	3	.	.	.
*Xped	*	*	*	*	*
*v	*v	*	*	*	*
=15	=15	=15	=15	=15
*	*	*^	*	*
*ped	*	*	*	*	*
4B-/ 4f 4cc	.	(8aa-\L 8aaa-	4eee-/	.	.
.	.	8gg\J) 8ggg	.	.	.
*Xped	*	*	*	*	*
4a-\ 4ee-	.	4ff'\ 4fff	4ccc/	.	.
*ped	*	*	*	*	*
4f/ 4a-	.	4gg'\ 4ggg	4eee-/	.	.
*Xped	*	*	*	*	*
=16	=16	=16	=16	=16	=16
*	*	*	*	*^	*
*ped	*	*	*	*below	*above	*
4B-/ 4b-	.	4ddd/ 4fff	(>8ff\L	1	3 2	.
.	.	.	8bb-\)	2	.	.
4f/ 4dd	.	4ryy	8bb-'\	1	.	.
.	.	.	8bbb-'\J	5	.	.
8ff'\L	.	4bbb-'\	4ryy	4	.	.
8ddd'\J	.	.	.	.	.	.
*Xped	*	*	*	*	*	*
*	*	*	*	*v	*v	*
=17	=17	=17	=17	=17	=17
*ped	*	*	*	*below	*
4B-'/ 4b-	.	4ddd'/ 4fff#X	8ff#X\L	1	.
.	.	.	8bb-'>\	2	.
8f#X'\L	3	4ryy	8bb-'\	1	.
8dd'\	1	.	8bbb-'\J	5	.
8ff#X'\	3	4bbb-'\	4ryy	.	.
8ddd'\J	1	.	.	.	.
*Xped	*	*X8va	*	*	*
!!LO:LB:g=original	!	!	!	!	!
=18	=18	=18	=18	=18	=18
*ped	*	*8va	*	*	*
4B-'/ 4b-	.	4ddd'/ 4ggg	8gg\L	1	.
.	.	.	8bb-'>\	2	.
8g'\L	3	4ryy	8bb-'\	1	.
8dd'\	1	.	8bbb-'\J	5	.
8gg'\	3	4bbb-'\	4ryy	.	.
8ddd'\J	1	.	.	.	.
*Xped	*	*	*	*	*
=19	=19	=19	=19	=19	=19
*ped	*	*	*	*	*
4B-'/ 4b-	.	4ddd'/ 4aaa-	8gg\L	1	.
.	.	.	8bb-'>\	2	.
8a-'\L	3	4ryy	8bb-'\	1	.
8dd'\	1	.	8bbb-'\J	5	.
8aa-'\	3	4bbb-'\	4ryy	.	.
8ddd'\J	1	.	.	.	.
*Xped	*	*	*	*	*
=20	=20	=20	=20	=20	=20
*ped	*	*	*	*	*
4B-'/ 4b-	.	4eee-'/ 4aaa-	8gg\L	.	.
.	.	.	8bbn'>\	.	.
8a-'\L	.	4ryy	8bb'\	.	.
8ee-'\	.	.	8bbbn'\J	.	.
8aa-'\	.	4bbb'\	4ryy	.	.
8eee-'\J	.	.	.	.	.
*Xped	*	*	*	*	*
*	*	*v	*v	*	*
=21	=21	=21	=21	=21
*	*	*	*above	*
8r	.	(16cccc\LL	5	pp
!	!	!LO:TX:b:i:t=brillante	!	!
.	.	16eee-\	2	.
8aa-'\L	5	16dddd-X\	4	.
.	.	16eeen\JJ	1	.
8aan'\	4	16ddddn\LL	5	.
.	.	16fff\	1	.
8bb-'\	3	16eeee-\	5	.
.	.	16fff#X\JJ	2	.
8bbn'\	2	16eeeen\LL	4	.
.	.	16ggg\	1	.
8ccc'\J	1	16ffff\	5	.
.	.	16aaa-\JJ	2	.
*	*	*X8va	*	*
!!LO:LB:g=original	!	!	!	!
=22	=22	=22	=22	=22
*	*	*8va	*	*
8ddd'\L	3	16aaaa-\LL	4	.
.	.	16cccc\	1	.
8eee-'\	2	16gggg\	5	.
.	.	16bbb-\JJ	2	.
8bbn'\	3	16ffff\LL	5	.
.	.	16aaa-\	2	.
8ccc'\	1	16eeee-\	4	.
.	.	16ggg\JJ	1	.
8gg'\	3	16dddd\LL	4	.
.	.	16fff\	1	.
8aa-'\J	2	16cccc\	5	.
.	.	16eee-\JJ	2	.
=23	=23	=23	=23	=23
8een'\L	3	16bbb-\LL	4	.
.	.	16ddd\	1	.
8ff'\	1	16aaa-\	4	.
.	.	16ccc\JJ	1	.
8b-'\	3	16ggg\LL	5	.
.	.	16bb-\	2	.
8b-'\	2	16fff\	5	.
.	.	16aa-\JJ	2	.
8b-'\	3	16eee-\LL	4	.
.	.	16gg\	1	.
8b-'\J	2	16ddd\	4	.
.	.	16ff\JJ	1	.
=24	=24	=24	=24	=24
4e-'/ 4b- 4ee-	1 3 5	8gg:\L 8eee-:	4	.
.	.	8eee-\J)	.	.
.	.	8qddd/	.	.
4b-'\ 4ee- 4bb-	.	4gg\ 4eee-	.	.
*	*	*X8va	*	*
4r	.	4r	.	.
*kcancel	*	*kcancel	*	*
!!LO:PB:g=original	!	!	!	!
=25||	=25||	=25||	=25||	=25||
*k[f#]	*	*k[f#]	*	*
*	*	*^	*	*
4G:/ 4d: 4b:	.	(8dd\L 8gg 8ddd	4ryy	.	pp <
.	.	8gg\J) 8ggg	.	.	[[
(4d/ 4b 4ee	.	(4ggg/	2gg\ 2bb	.	>
4dd\)	.	4ddd/)	.	.	]]
=26	=26	=26	=26	=26	=26
*^	*	*	*	*	*
2d/ 2cc	(>4g\	.	(8cccM/L	2ee\	454	.
.	.	.	8bb/	.	3	.
.	4f#\)	.	8aa/	.	2	.
.	.	.	8eee/)	.	5	.
4a'\ 4ff#	4ryy	.	8ee'/ 8eee	4aa\	1 2 5	.
.	.	.	8dd'/J 8ddd	.	.	.
*v	*v	*	*	*	*	*
=27	=27	=27	=27	=27	=27
4G:/ 4d: 4b:	.	(8dd\L 8gg 8ddd	4ryy	.	.
.	.	8gg\J) 8ggg	.	.	.
(4d/ 4b 4ee	.	(4ggg/	2gg\ 2bb	.	.
4dd\)	.	4ddd/)	.	.	.
=28	=28	=28	=28	=28	=28
*^	*	*	*	*	*
2d/ 2cc	(>4g\	.	(8cccM/L	2ee\	.	.
.	.	.	8bb/	.	.	.
.	4f#\)	.	8aa/	.	.	.
.	.	.	8ddd/J)	.	.	.
4a'\ 4ff#	4ryy	.	4ddd'/	4dd\ 4aa	.	.
*v	*v	*	*	*	*	*
*	*	*v	*v	*	*
=29	=29	=29	=29	=29
*ped	*	*	*	*
4G/ 4d 4b-X	.	(8dd\L 8gg 8ddd	.	<
.	.	8gg\J) 8ggg	.	.
(4e-X/ 4cc	.	(4gg\ 4bb-X 4ggg	.	[ p >
4fn/) 4dd	.	4ffn\) 4aa 4fffn	.	]]
*ped	*	*	*	*
!!LO:LB:g=original	!	!	!	!
=30	=30	=30	=30	=30
*ped	*	*	*	*
4E-X/ 4B-X 4g	.	(8b-X\L 8ee-X 8bb-X	.	<
.	.	8ee-\J) 8eee-X	.	.
(4c/ 4a	.	(4ee-\ 4gg 4eee-	.	[ >
4d/) 4b-X	.	4dd\) 4ff#X 4ddd	.	]]
*ped	*	*	*	*
*clefF4	*	*	*	*
=31	=31	=31	=31	=31
*ped	*	*	*	*
4C:\ 4G: 4e-X:	.	(8g\L 8cc 8gg	.	.
.	.	8ccc\J)	.	.
*Xped	*	*	*	*
4A'\ 4g	.	4cc'\ 4ee-X 4ccc	.	.
*clefG2	*	*	*	*
4d'/ 4b-X	.	4dd'\ 4ff#X 4ddd	.	.
*clefF4	*	*	*	*
=32	=32	=32	=32	=32
*ped	*	*	*	*
4C:\ 4G: 4e-X:	.	(8g\L 8cc 8gg	.	.
.	.	8ccc\J)	.	.
*Xped	*	*	*	*
4A'\ 4g	.	4cc'\ 4ee-X 4ccc	.	.
*clefG2	*	*	*	*
4d'/ 4b-X	.	4dd'\ 4ff#X 4ddd	.	.
*clefF4	*	*	*	*
=33	=33	=33	=33	=33
*ped	*	*	*	*
4E-X:\ 4B-X: 4g:	.	8b-X'\L 8gg	2 5	.
.	.	8cc'\ 8aa	1 4	.
8b-X'\L	1	8dd'\ 8bb-X	4	<
8e-X'\J	2	8ee-X'\ 8ccc	5	.
4B-'\	5	8ffn'\ 8ddd	4	.
.	.	8gg'\J 8eee-X	4	.
*Xped	*	*	*	*
=34	=34	=34	=34	=34
*ped	*	*	*	*
4CC'/ 4C	.	8aa'\L 8fffn	4	.
.	.	8bb-X'\ 8ggg	5	[
8a'\L	1	8aa'\ 8fff	4	>
8e-X'\J	2	8gg'\ 8eee-X	3	.
4G\	5	8ffn'\ 8ddd	4	.
.	.	8ee-X'\J 8ccc	5	]]
*Xped	*	*	*	*
!!LO:LB:g=original	!	!	!	!
=35	=35	=35	=35	=35
*ped	*	*	*	*
4DD'/ 4D	.	8dd'\L 8bb-X	4	.
.	.	8cc'\ 8aa	4	.
4F#'\ 4e-X	.	8b-X'\ 8gg	5	.
.	.	8a'\ 8ff#X	4	.
4c'\	.	8g'\ 8ee-X	3	.
.	.	8a'\J 8ff#	4	.
*Xped	*	*	*	*
=36	=36	=36	=36	=36
*ped	*	*	*	*
4GG:\ 4D: 4B:	.	(8bn'\L 8gg	.	.
.	.	8gg'\J)	.	.
4B\ 4d 4g	.	4b'\ 4gg	.	.
4r	.	4r	.	.
*Xped	*	*	*	*
*clefG2	*	*	*	*
=37	=37	=37	=37	=37
*	*	*^	*	*
4G:/ 4d: 4b:	.	(8dd\L 8gg 8ddd	4ryy	.	<
.	.	8gg\J) 8ggg	.	.	.
(4d/ 4b 4ee	.	(4ggg/	2gg\ 2bb	.	[ >
4dd\)	.	4ddd/)	.	.	]]
=38	=38	=38	=38	=38	=38
*^	*	*	*	*	*
2d/ 2cc	(>4g\	.	(8cccM/L	2ee\	.	.
.	.	.	8bb/	.	.	.
.	4f#\)	.	8aa/	.	.	.
.	.	.	8eee/)	.	.	.
4a'\ 4ff#	4ryy	.	8ee'/ 8eee	4aa\	.	.
.	.	.	8dd'/J 8ddd	.	.	.
*v	*v	*	*	*	*	*
=39	=39	=39	=39	=39	=39
4G:/ 4d: 4b:	.	(8dd\L 8gg 8ddd	4ryy	.	.
.	.	8gg\J) 8ggg	.	.	.
(4d/ 4b 4ee	.	(4ggg/	2gg\ 2bb	.	.
4dd\)	.	4ddd/)	.	.	.
!!LO:LB:g=original	!	!	!	!	!
=40	=40	=40	=40	=40	=40
*^	*	*	*	*	*
2d/ 2cc	(>4g\	.	(8cccM/L	2ee\	.	.
.	.	.	8bb/	.	.	.
.	4f#\)	.	8aa/	.	.	.
.	.	.	8ddd/J)	.	.	.
4a\ 4ff#	4ryy	.	4ddd/	4dd\ 4aa	.	.
*v	*v	*	*	*	*	*
*	*	*v	*v	*	*
=41	=41	=41	=41	=41
4G:/ 4d: 4b-X:	.	(8dd\L 8gg 8ddd	.	<
.	.	8ggg\J)	.	.
8e-X'/L	.	4gg\ 4bb-X 4ggg	.	[ >
8cc'/	.	.	.	.
8fn'/	.	4ffn\ 4aa 4fffn	.	]]
8dd'/J	.	.	.	.
=42	=42	=42	=42	=42
4E-X:/ 4B-X: 4g:	.	(8b-X\L 8ee-X 8bb-X	.	<
.	.	8eee-X\J)	.	.
8c'/L	.	4ee-\ 4gg 4eee-	.	[ >
8a'/	.	.	.	.
8d'/	.	4dd\ 4ff#X 4ddd	.	]]
8b-X'/J	.	.	.	.
*clefF4	*	*	*	*
=43	=43	=43	=43	=43
4C\ 4G 4e-X	.	(8g\L 8cc 8gg	.	<
.	.	8ccc\J)	.	.
8A'\L	.	4cc\ 4ee-X 4ccc	.	[
8g'\	.	.	.	.
8d'\	.	4dd\ 4ff#X 4ddd	.	.
8b-X'\J	.	.	.	.
!!LO:LB:g=original	!	!	!	!
=44	=44	=44	=44	=44
4C\ 4G 4e-X	.	(8g\L 8cc 8gg	.	<
.	.	8ccc\J)	.	.
8A'\L	.	4cc\ 4ee-X 4ccc	.	[
8g'\	.	.	.	.
8d'\	.	4dd\ 4ff#X 4ddd	.	.
8b-X'\J	.	.	.	.
*clefG2	*	*	*	*
=45	=45	=45	=45	=45
*ped	*	*	*	*
4A/ 4d 4a	.	(8dd\L 8ffn 8ddd	.	.
.	.	8aa\J) 8aaa	.	.
*clefF4	*	*	*	*
8D\L	5	4aa'\ 4aaa	.	.
8A\	2	.	.	.
8fn\	1	4aa'\ 4aaa	.	.
8A\J	.	.	.	.
=46	=46	=46	=46	=46
*	*	*8va	*	*
4fn\	1	(8aa\L 8aaa	.	.
.	.	8ddd\J) 8dddd	.	.
*clefG2	*	*	*	*
8A/L	5	4ddd'\ 4dddd	.	.
8fn/	.	.	.	.
8dd/	.	4ddd'\ 4dddd	.	.
8f/J	.	.	.	.
=47	=47	=47	=47	=47
4a\ 4ffn	.	4ddd\ 4dddd	.	.
(4A/ 4d 4fn 4a	.	(8dd/L 8ffn 8aa	.	.
.	.	8ddd/	.	.
4d/ 4f 4a 4dd	.	8ff/ 8aa 8ddd	.	.
.	.	8fffn/J	.	.
=48	=48	=48	=48	=48
4fn\ 4a 4dd 4ffn	.	8aa\L 8ddd 8fffn	4	.
.	.	8aaa\J	5	.
4a:\) 4dd: 4ff: 4aa:	.	4ddd:\) 4fff: 4aaa: 4dddd:	.	.
*	*	*X8va	*	*
4r	.	4r	.	.
*Xped	*	*	*	*
*kcancel	*	*kcancel	*	*
!!LO:PB:g=original	!	!	!	!
=49	=49	=49	=49	=49
*k[b-e-a-]	*	*k[b-e-a-]	*	*
*^	*	*	*	*
!	!	!	!LO:TX:a:i:t=poco più lento	!	!
(8f/L	2B-\ 2d	.	4r	.	p <
8b-/J)	.	.	.	.	.
*	*	*	*8va	*	*
!	!	!	!	!	!LO:DY:a
4b-/	.	.	4bb-'\ 4ddd 4bbb-	.	[ pp >
4a-/	4B-\ 4c 4e-	.	4ccc'\ 4eee- 4cccc	.	]]
=50	=50	=50	=50	=50	=50
(8f/L	2B-\ 2d	.	4r	.	.
8b-/J)	.	.	.	.	.
4b-/	.	.	4bb-'\ 4ddd 4bbb-	.	.
4a-/	4B-\ 4c 4e-	.	4ccc'\ 4eee- 4cccc	.	.
=51	=51	=51	=51	=51	=51
(8a-/L	2.B-\ 2.c 2.e-	.	4r	.	.
8g-X/J	.	.	.	.	.
4f/	.	.	4aa-'\ 4ccc 4aaa-	.	.
4g-/)	.	.	4gg-X'\ 4bb- 4ggg-X	.	.
*v	*v	*	*	*	*
*	*	*X8va	*	*
=52	=52	=52	=52	=52
*^	*	*	*	*
[8f/L	2.B-\ 2.d	.	4r	.	.
8f/J_ 8b-	.	.	.	.	.
2f~/] 2b-	.	.	8aa-'\L 8fff	.	.
.	.	.	8ff'\ 8ddd	.	.
.	.	.	8ee-'\ 8ccc	.	.
.	.	.	8dd'\J 8bb-	.	.
*clefF4	*	*	*	*	*
*v	*v	*	*	*	*
=53	=53	=53	=53	=53
!	!	!LO:TX:a:B:t=Tempo I.	!	!
4E-\ 4B- 4g	.	(8b-\L 8ee- 8bb-	.	p
.	.	8eee-\)	.	.
(4e-\	.	(8gg\ 8eee-	.	.
.	.	8ccc\)	.	.
4f\	.	(8ccc\	.	.
.	.	8ddd\J)	.	.
!!LO:LB:g=original	!	!	!	!
=54	=54	=54	=54	=54
*^	*	*	*	*
4a-/	4B-'\	.	4b-'\ 4dd 4ff 4bb-	.	.
4g/	4B-'\	.	4b-'\ 4ee- 4gg 4bb-	.	.
4f/)	4B-'\	.	4b-'\ 4ff 4aa- 4bb-	.	.
*v	*v	*	*	*	*
=55	=55	=55	=55	=55
4E-\ 4B- 4g	.	(8b-\L 8ee- 8bb-	.	.
.	.	8eee-\)	.	.
(4e-\	.	(8gg\ 8eee-	.	.
.	.	8ccc\)	.	.
4f\	.	(8ccc\	.	.
.	.	8ddd\J)	.	.
=56	=56	=56	=56	=56
*^	*	*	*	*
4a-/	4B-'\	.	4b-'\ 4dd 4ff 4bb-	.	.
4g/	4B-'\	.	4b-'\ 4ee- 4gg 4bb-	.	.
4f/)	4B-'\	.	4b-'\ 4ff 4aa- 4bb-	.	.
*v	*v	*	*	*	*
=57	=57	=57	=57	=57
4E-\ 4B- 4g	.	(8b-\L 8ee- 8bb-	.	.
.	.	8eee-\)	.	.
4B-\ 4e- 4b-	.	(8gg\ 8eee-	.	.
.	.	8ggg\)	.	.
*clefG2	*	*	*	*
4e-/ 4g 4ee-	.	(8bb-\ 8ggg	.	.
.	.	8bbb-\J)	.	.
=58	=58	=58	=58	=58
*	*	*8va	*	*
4A-/ 4f 4cc	.	4ccc'\ 4ggg 4bbb-	.	.
4f/ 4cc 4ee-	.	8ccc'\L 8aaa-	.	.
.	.	8bb-'\ 8ggg	.	.
4r	.	8aa-'\ 8fff	.	.
.	.	8gg'\J 8eee-	.	.
*	*	*X8va	*	*
!!LO:LB:g=original	!	!	!	!
=59	=59	=59	=59	=59
4B-/ 4a- 4b-	.	8ff'\L 8ddd	.	.
.	.	8ee-'\ 8ccc	.	.
4B-/	.	8dd'\ 8bb-	.	.
.	.	8cc'\ 8aa-	.	.
4B-/	.	8b-'\ 8gg	.	.
.	.	8a-'\J 8ff	.	.
=60	=60	=60	=60	=60
4E-/ 4B- 4e-	.	8g\L 8ee-	.	.
.	.	8ee-\J	.	.
.	.	8qdd/	.	.
4B-/ 4e- 4b-	.	4g\ 4ee-	.	.
4r	.	4r	.	.
=61	=61	=61	=61	=61
*	*	*8va	*	*
4B-/	.	(8ff:\L 8bb-: 8ddd: 8fff:	.	.
.	.	8bb-\J) 8bbb-	.	.
8f'\L	.	4bb-\ 4bbb-	.	.
8dd'\	.	.	.	.
8b-'\	.	4bb-\ 4bbb-	.	.
8ff'\J	.	.	.	.
=62	=62	=62	=62	=62
4B-/	.	(8ff:\L 8bb-: 8ddd: 8fff:	.	.
.	.	8bb-\J) 8bbb-	.	.
8f'\L	.	4bb-\ 4bbb-	.	.
8dd'\	.	.	.	.
8b-'\	.	4bb-\ 4bbb-	.	.
8ff'\J	.	.	.	.
=63	=63	=63	=63	=63
*	*	*^	*	*
8B-/L 8f	.	4eee-/	8aa-\L 8aaa-	.	.
8cc/	.	.	8gg\J 8ggg	.	.
8a-/	.	4ccc/	4ff\ 4fff	.	.
8ee-/	.	.	.	.	.
8f/	.	4eee-/	4gg\ 4ggg	.	.
8a-/J	.	.	.	.	.
*	*	*	*X8va	*	*
!!LO:LB:g=original	!	!	!	!	!
=64	=64	=64	=64	=64	=64
*	*	*	*8va	*	*
4B-/ 4b-	.	4ddd/ 4fff	8ff\L	.	.
.	.	.	8bb-'>>\	.	.
8f\L	.	4ryy	8bb-'\	.	.
8dd\	.	.	8bbb-'\J	.	.
8ff\	.	4bbb-'\	4ryy	.	.
8ddd\J	.	.	.	.	.
*	*	*v	*v	*	*
=65	=65	=65	=65	=65
*^	*	*	*	*
*	*	*^	*	*	*
4B-/ 4f 4dd	4ryy	.	.	(8ff\L 8bb- 8fff	.	.
.	.	.	.	8bb-\J) 8bbb-	.	.
*	*	*above	*below	*	*	*
4gg/	8f\L	1	5	4bb-'\ 4bbb-	.	.
.	8dd\	.	2	.	.	.
4aa-/	8b-\	1	4	4bb-'\ 4bbb-	.	.
.	8dd\J	.	2	.	.	.
*	*	*v	*v	*	*	*
=66	=66	=66	=66	=66	=66
4B-/ 4f 4dd	4ryy	.	(8ff:\L 8bb-: 8fff:	.	.
.	.	.	8bb-\J) 8bbb-	.	.
4gg/	8f\L	.	4bb-'\ 4bbb-	.	.
.	8dd\	.	.	.	.
4aa-/	8b-\	.	4bb-'\ 4bbb-	.	.
.	8dd\J	.	.	.	.
*v	*v	*	*	*	*
=67	=67	=67	=67	=67
*	*	*^	*	*
8B-'/L 8f	.	4eee-/	(>8aa-\L 8aaa-	.	.
8cc'/	.	.	8gg\J) 8ggg	.	.
8a-'/	.	4ccc/	4ff'>\ 4fff	.	.
8ee-'/	.	.	.	.	.
8f'/	.	4eee-/	4gg'>\ 4ggg	.	.
8a-'/J	.	.	.	.	.
=68	=68	=68	=68	=68	=68
4B-/ 4b-	.	4ddd/ 4fff	(>8ff\L	.	.
.	.	.	8bb-\)	.	.
!	!	!LO:TX:b:i:t=poco rit.	!	!	!
8f'\L	.	2ryy	8bb-'\	.	.
8dd'\	.	.	8bbb-'\	.	.
8ff'\	.	.	8bbb-'\	.	.
8ddd'\J	.	.	8bbb-'\J	.	.
*	*	*	*X8va	*	*
*	*	*v	*v	*	*
!!LO:LB:g=original	!	!	!	!
=69	=69	=69	=69	=69
*^	*	*	*	*
*	*	*^	*	*	*
*	*	*	*	*8va	*	*
!	!	!	!	!LO:TX:a:B:t=Molto più lento.	!	!
(8B-/L	4E-\ 4G	2	3 5	2bb-TT\	.	.
8e-/)	.	1	.	.	.	.
(8e-/	4G\ 4B-	2	.	.	.	.
8g/)	.	1	.	.	.	.
*	*	*	*	*Xtuplet	*	*
(8g/	4B-\ 4e-	2	.	48bb-\LLL	2	.
.	.	.	.	48bbn\	1	.
!	!	!	!	!LO:TX:b:i:t=rit._	!	!
!	!	!	!	!LO:TX:b:Bi:t=rit._ :problem: with line extensions	!	!
.	.	.	.	48ccc\	2	.
.	.	.	.	48ddd-X\	1	.
.	.	.	.	48dddn\	1	.
.	.	.	.	48eee-\	2	.
8b-,/J)	.	1	.	48eeen\	1	.
.	.	.	.	48fff\	2	.
.	.	.	.	48fff#X\	3	.
.	.	.	.	48ggg\	1	.
.	.	.	.	48aaa-\	2	.
.	.	.	.	48aaan,\JJJ	3	.
*	*	*v	*v	*	*	*
*v	*v	*	*	*	*
=70	=70	=70	=70	=70
4A-'/ 4f	.	4ccc:\ 4ggg: 4bbb-:	4	.
4f'/ 4ee-	.	8ccc'\L 8aaa-	3	.
!	!	!LO:TX:b:i:t=a tempo	!	!
.	.	8bb-'\ 8ggg	5	.
4ryy	.	8aa-'\ 8fff	5	.
.	.	8gg'\J 8eee-	4	.
*	*	*X8va	*	*
=71	=71	=71	=71	=71
!	!	!LO:TX:b:i:t=rit.	!	!
4B-/ 4a- 4b-	.	8ff'\L 8ddd	3	.
.	.	8ee-'\ 8ccc	5	.
*8va	*	*	*	*
4bbb-'\	3	8dd'\ 8bb-	4	.
.	.	8cc'\ 8aa-	3	.
4bbb-'\	3	8b-'\ 8gg	5	.
.	.	8a-'\J 8ff	5	.
*X8va	*	*	*	*
=72	=72	=72	=72	=72
4E-/ 4B- 4e-	.	8g:\L 8ee-:	.	.
*	*	*8va	*	*
!	!	!LO:TX:b:i:t=rit.	!	!
.	.	8eeee-'\J	4	.
4g\ 4ee-	.	4eeee-'\	3	.
*	*	*X8va	*	*
4r	.	4r	.	.
==	==	==	==	==
*-	*-	*-	*-	*-
!!!system-decoration: {(s1,s2)}
!!!RDF**kern: > = above
!!!RDF**kern: < = below
!!!ENC: Filip Voros
!!!END: 2023-10-13
!!!EED: Jan Barakat
!!!EEV: 2023-10-25
